X:200
T: DIE GASSEN SEIN SO ENGE
N: E0107C
O: Europa, Mitteleuropa, Deutschland, Insel Ruegen
R: erzaehlendes Volks - Lied, Sage, Liebe, Leid, Tod
M: 6/8
L: 1/8
K: G
D | DGGFcA | FDz3
D | DGGFcA | FDz3
D | B2GB2G | c2BA2
B | GFEDGG | AGFG2

@@@ Tune index: 3850
